X: 10041
T: The GARB OF OLD GAUL
Q: "March."
%R: march, reel
B: W. Hamilton "Universal Tune-Book" Vol. 1 Glasgow 1844 p.4 #1
S: http://imslp.org/wiki/Hamilton's_Universal_Tune-Book_(Various)
Z: 2016 John Chambers <jc:trillian.mit.edu>
M: C|
L: 1/8
K: C
% - - - - - - - - - - - - - - - - - - - - - - - - -
G2 |\
c2c>c c2(ed) | c>GEG c2(cd) |\
e2e>e e2(gf) | e>dcd e2(ef) |\
g2g>g g2(ag) | f2f>f f2(gf) |\
e>dcd egfe | d2d>d d2 :|
|: (d/c/B/A/) |\
G>AG>A B>cB>c | d>ed>e f2(ed) |\
c>dc>d e>fe>f | g>ag>a _b2(ag) |\
a>f (de/f/) ge (cd/e/) | fedc cBAG |\
A>Bcd e2(g/f/e/d/) | c2c>c c2 :|
% - - - - - - - - - - - - - - - - - - - - - - - - -

%%sep 1 1 500
%%sep 1 1 500

